X: 4424
T: "BUY A BROOM" WALTZ
N: Variant of "Ach du lieber Augustin".
R: Waltz
%R: waltz
B: James Kerr "Merry Melodies" v.4 p.47 #424
Z: 2016 John Chambers <jc:trillian.mit.edu>
M: 3/4
L: 1/8
K: D
!p!(df) |\
a2 (ab)ag | (f2 d2) d2 | (e2 A2) A2 | f2 (defg) |\
a2 (ab)ag | (f2 d2) d2 | (e2 A2) A2 | d2 z2 :: d2 |\
(e2 A2) A2 | (f2 d2) d2 | (e2 A2) A2 | (f2 d2) (df) |\
a2 (ab)ag | (f2 d2) d2 | (e2 A2) A2 | d2 "_D.C."z2 :|

%%sep 1 1 500
%%sep 1 1 500

